X:1
T:Norsk Sjømandssang (versjon 4)
T:B. Bjørnson
T:Friedrich August Reissiger
%%score [ 1 2 3 4 ]
L:1/8
Q:1/4=60
M:2/4
K:A
V:1 treble-8 nm="T1"
V:2 treble-8 nm="T2"
V:3 bass nm="B1"
V:4 bass nm="B"
V:1
"^Allegro energico"!f! E | A A A A | A/ G/ F/ E/ A c | e3/2 f/ e2- | e e f c | !>!d3/2 e/ d2- | %6
w: Den|nor- ske sjø- mand|er et gen- nem- bar- ket|fol- ke- færd;|_ hvor far- tøj|fly- de kan,|
 d d e B | !>!c3/2 d/ c2- | c ^d e f | g2 f2 | e z !>!f2 | B e (e/^d/) (c/d/) | e2 z!mf! e | %13
w: _ der er han|før- ste Mand,|_ hvor far- tøj|fly- de|kan, der|er han før- * ste _|Mand. Paa|
 !>!f3 c | !>!d3/2 e/ d B | .e .f .e .B | !>!c3/2 d/ c A |!<(! B c d e!<)! | f2 f2 | %19
w: togt og|hjem- me her ved|sund og skær og|fis- ke- vær han|har sin Gud i|sind og|
 e B !>!e3/2!>(! d/ | c!>)! z z!f! A |!<(! B c d!<)! e | f f g a | !^!c2 !^!B2 | !^!A2 z |] %25
w: sæt- ter li- vet|ind, han|har sin Gud i|sind, og sæt- ter|li- vet|ind.|
V:2
!f! E | A A A A | A/ G/ F/ E/ A A | c3/2 d/ c2- | c c c F | !>!F3/2 B/ B2- | B B B E | %7
w: Den|nor- ske sjø- mand|er et gen- nem- bar- ket|fol- ke- færd;|_ hvor far- tøj|fly- de kan,|_ der er han|
 !>!E3/2 A/ A2- | A B B ^d | (e2 ^d) ^B | c z !>!c2 | B B A A | G2 z!mf! B | !>!c3 ^A | %14
w: før- ste Mand,|_ hvor far- tøj|fly- * de|kan, der|er han før- ste|Mand. Paa|togt og|
 !>!B3/2 ^A/ B B | .B .G .A .G | !>!A3/2 B/ A A |!<(! A A B c!<)! | d2 d2 | B B !>!A3/2!>(! B/ | %20
w: hjem- me her ved|sund og skær og|fis- ke- vær han|har sin Gud i|sind og|sæt- ter li- vet|
 A!>)! z z!f! A |!<(! A A B!<)! c | d A B ^B | (^cA) G2 | A2 z |] %25
w: ind, han|har sin Gud i|sind, og sæt- ter|li- * vet|ind.|
V:3
!f! E, | A, A, A, A, | A,/ G,/ F,/ E,/ A, E, | A,3/2 A,/ A,2- | A, B, ^A, A, | !>!B,3/2 F,/ F,2- | %6
w: Den|nor- ske sjø- mand|er et gen- nem- bar- ket|fol- ke- færd;|_ hvor far- tøj|fly- de kan,|
 F, =F, E, G, | !>!A,3/2 E,/ E,2- | E, A, G, B, | (B,2 ^B,) G, | G, z !>!A,2 | G, G, F, B, | %12
w: _ der er han|før- ste Mand,|_ hvor far- tøj|fly- * de|kan, der|er han før- ste|
 B,2 z!mf! G, | !>!^A,3 F, | !>!F,3/2 F,/ F, =F, | .E, .E, .E, .E, | !>!E,3/2 E,/ E, A, | %17
w: Mand. Paa|togt og|hjem- me her ved|sund og skær og|fis- ke- vær han|
!<(! A, A, A, A,!<)! | A,2 B,2 | A, G, !>!F,3/2!>(! G,/ | A,!>)!!f! E, A,2- |!<(! A, A, A,!<)! A, | %22
w: har sin Gud i|sind og|sæt- ter li- vet|ind, han har|_ sin Gud i|
 A, F, ^E, F, | (A,E,) D,2 | C,2 z |] %25
w: sind, og sæt- ter|li- * vet|ind.|
V:4
!f! E, | A, A, A, A, | A,/ G,/ F,/ E,/ A, A,, | A,3/2 A,/ A,2- | A, =G, F, F, | %5
w: Den|nor- ske sjø- mand|er et gen- nem- bar- ket|fol- ke- færd;|_ hvor far- tøj|
 !>!B,,3/2 B,,/ B,,2- | B,, A,, G,, E, | !>!A,,3/2 A,,/ A,,2- | A,, A, G, F, | (E,2 G,) G,, | %10
w: fly- de kan,|_ der er han|før- ste Mand,|_ hvor far- tøj|fly- * de|
 C, z !>!A,,2 | B,, B,, B,, B,, | E,2 z!mf! E, | !>!E,2 E,2 | !>!D,3/2 C,/ B,, A,, | %15
w: kan, der|er han før- ste|Mand. Paa|togt og|hjem- me her ved|
 .G,, .D, .C, .E, | !>!A,,3/2 A,,/ A,, A, |!<(! G, =G, F, E,!<)! | D,2 B,,2 | %19
w: sund og skær og|fis- ke- vær han|har sin Gud i|sind og|
 E, E, !>!E,3/2!>(! E,/ |"_Maj 1871" A,,!>)! z z!f! A, |!<(! G, =G, F,!<)! E, | D, D, D, ^D, | %23
w: sæt- ter li- vet|ind, han|har sin Gud i|sind og sæt- ter|
 !^!E,2 !^!E,,2 | !^!A,,2 z |] %25
w: li- vet|ind.|

